img/img_elements_visuels/algue_02.svg

<svg xmlns="http://www.w3.org/2000/svg" width="1134" height="1267" fill="none"><path fill="#107500" d="M421.985 1225.2c3.74-14.96 26.18-67.33 26.18-97.25s18.701-74.81 0-97.25c-18.7-22.44-29.92-63.584-59.841-63.584-29.92 0-59.841 14.962-82.281 11.221-22.44-3.74-41.141-7.48-63.581-41.143-22.44-33.663-37.4-78.547-37.4-93.508 0-14.961 11.22 7.481 29.92 33.663 18.7 26.182 63.581 44.885 78.541 52.365 14.96 7.48 52.361-7.482 74.801 7.48 22.441 14.962 78.542 82.286 78.542 93.506v82.29c0 14.96-18.701 44.88-18.701 63.58 0 14.97-12.467 38.65-18.7 48.63 7.48 9.97 23.936 23.94 29.92 0 7.481-29.92 37.401-157.09 33.661-175.8-3.74-18.7 3.74 0-14.96-41.14-18.701-41.144-33.661-56.103-48.621-93.507s3.74-44.884-41.141-63.586c-44.88-18.701-130.902-26.182-145.862-63.585-14.96-37.403-29.92-67.326-52.361-89.767v-.001c-22.44-22.442-41.141-41.143-63.581-52.364-22.44-11.221-52.36 3.74-71.06-37.403-18.701-41.143-37.401-74.806-44.882-97.248-7.48-22.442-14.96-52.364-7.48-63.585 7.48-11.221 48.62 48.624 63.58 63.585 14.96 14.961 26.18 33.662 78.541 44.883 52.361 11.221 119.682 29.922 134.643 59.845 14.96 29.923 26.182 52.364 33.661 67.326 7.479 14.962 33.66 22.442 48.62 26.182 14.96 3.74 29.919 3.74 44.881 33.663 14.961 29.922 22.441 44.883 22.441 82.287 0 37.403 3.738 37.402 11.219 63.585s.001 22.442 26.182 59.845c26.18 37.403 22.439 18.702 33.659 59.845 11.22 41.14 14.96 22.44 14.96 56.1 0 33.67-7.481 37.41-14.96 56.11-7.479 18.7.002 29.92-7.479 48.62-7.481 18.71-10.874 62.43-10.254 67.33 2.35 18.55 32.693-93.51 40.173-108.47 7.48-14.96 33.661-74.81 37.401-112.21 3.74-37.403 14.96-63.583 0-100.987-14.96-37.404-14.96-29.924-37.401-78.547-22.44-48.624-29.921-44.884-37.4-82.287-7.479-37.403-22.439-18.702-7.479-86.028 14.96-67.325-74.8-71.065-89.762-86.027-14.961-14.961-26.181-33.663-41.141-63.585-14.961-29.923-26.18-59.845-33.66-97.248-7.48-37.403-26.181-18.702-33.661-56.105-7.481-37.403 7.48-56.105 0-82.287-7.481-26.182-14.962-7.48-29.921-56.104-14.959-48.625-22.439-63.586-14.959-112.21 7.48-48.624 0-74.806 0-104.729 0-23.938 37.4 2.494 56.1 18.702 23.687 4.987 71.061 27.677 71.061 78.546 0 63.585-3.738 82.286 26.181 100.988 29.92 18.703 37.399-7.48 63.58 26.182 26.182 33.663 14.962 52.365 14.962 86.028 0 33.662-11.221 37.403 0 59.845 11.22 22.441 18.699 22.443 29.919 41.144 11.22 18.701 29.92 52.363 14.96 82.286-14.96 29.922-29.92 48.623-14.96 63.585 14.96 14.962 33.66 18.701 26.18 59.845v.001c-7.48 41.144-14.96 82.288-7.48 115.95 7.48 33.662 26.181 56.104 44.881 82.287 18.7 26.182 26.18 37.404 26.18 89.768 0 52.363 0 74.803-7.48 104.727-7.48 29.92-3.74 41.14-18.7 74.81-14.96 33.66-41.306 69.61-52.526 110.75-11.22 41.14 7.48 41.15 22.44 7.48 14.96-33.66 41.306-103.27 56.266-118.23 14.961-14.96 48.621-86.03 48.621-115.953 0-29.922 11.22-78.546 0-89.767-11.22-11.221-18.7-14.96-18.7-63.585s11.22-97.246 18.7-127.17c7.48-29.924 11.22-14.962 18.7-52.365 7.48-37.403 3.74-59.847-7.48-93.509s-16.938-56.264-11.22-71.066c4.335-11.221 7.48-63.585 63.581-82.287 56.101-18.701 71.061-52.364 71.061-78.546 0-26.183-11.22-44.884 7.48-78.547 18.701-33.663 41.141-48.624 63.581-52.364 22.441-3.741 67.321-37.404 71.061-52.365 3.74-14.961 33.661-48.624 44.881-52.364 11.22-3.74 56.098 7.48 74.798 7.48 18.7 0-14.96 22.443-22.44 22.443s-26.177 11.22-26.177 22.441v59.845c0 22.442-3.741 71.066-37.401 97.248-33.661 26.183-67.321 41.143-86.021 56.105-18.701 14.962-33.661 26.181-26.181 48.624s7.48 48.624 7.48 71.065v.001c0 17.954-17.453 72.313-26.18 97.248-16.895 37.776-56.468 69.434-74.801 78.548-24.151 12.007-44.984 11.464-52.361 22.441-8.602 12.801-26.181 18.703-33.661 41.144s-6.45 28.609-7.48 44.884c-2.644 41.807 0 72.312 0 82.287-.553 13.825-2.136 1.162 0 29.921 2.826 38.039 7.48 14.964 7.48 63.587 0 48.623-14.96 67.324-18.7 89.766-3.74 22.44-7.48 56.1-18.7 74.81-11.22 18.7-18.701 48.62-37.401 56.1-17.441 6.98-38.28 65.01-47.076 78.85 14.082-16.72 94.666-108.64 114.397-134.95 22.441-29.93 44.881-86.03 74.801-115.953 29.921-29.922 33.661-44.883 48.621-89.767 14.96-44.884 18.7-56.104 44.881-63.585 26.18-7.482 33.66-11.221 71.061 0 37.401 11.221 52.361-.001 74.801-11.222 22.44-11.221 14.96-44.884 52.358-41.144 37.4 3.741 56.1 0 74.8 0 14.96 0 31.17-12.467 37.4-18.7 6.24 2.494 14.96 12.719 0 33.663-18.7 26.181-18.7 3.739-52.36 14.96s-48.62 11.219-67.32 29.922c-18.698 18.703 7.48 33.664-29.918 44.885-37.4 11.22-59.841 7.48-93.501 18.701-33.661 11.221-52.361 11.221-67.321 41.144-14.96 29.922 7.48 41.142-33.661 59.844-41.14 18.702-48.62 14.962-59.841 33.662-11.211 18.69-44.828 52.31-59.806 67.29l-.035.04c-11.968 11.97-22.44 32.41-26.18 41.14-11.22 18.7-36.652 56.85-48.621 59.85-14.96 3.74-41.14 22.44-48.62 37.4-7.481 14.96-3.742 18.7-37.401 22.44-33.659 3.74-41.142 7.48-59.841 7.48-18.699 0-41.141-14.96-37.401-18.7 3.741-3.74 3.743-18.7 18.702-22.44Z"/><path fill="#21CE05" d="M403.646 786.714c9.498 14.246 4.749 31.659 6.332 45.905-3.694-3.694-11.397-11.714-12.664-14.246-1.583-3.166-1.583-18.995-3.166-25.327-1.582-6.332-4.748-14.247-14.246-22.161-9.497-7.915-22.161-4.749-37.99-9.498-15.829-4.748-26.91-6.331-34.824-11.08-7.915-4.749-18.996-17.412-23.744-30.076-4.749-12.663-11.081-23.744-15.83-34.824-4.748-11.081-7.914-23.744-14.246-36.407-6.332-12.664-39.573-26.91-52.236-28.493-12.664-1.583-33.242 11.08-44.322 7.915-11.081-3.166-20.578-11.081-25.327-18.996-4.749-7.914-30.076-28.492-42.74-36.407-12.663-7.915-30.075-22.161-37.99-37.99-7.914-15.829-11.08-26.91-20.577-39.573-7.599-10.131-11.609-24.272-12.664-30.076 4.749 5.277 15.83 18.679 22.161 30.076 7.915 14.246 23.744 30.075 30.076 42.739 6.331 12.663 44.322 37.99 66.483 58.568 22.161 20.578 41.156 7.915 68.065 12.663 26.91 4.749 34.825 14.247 49.071 26.91 14.246 12.664 22.161 31.659 30.076 53.82 7.914 22.161 17.412 28.492 39.573 49.07s26.91 6.332 50.653 15.83c23.744 9.497 20.578 17.412 30.076 31.658ZM275.429 52.237c-1.583-20.579-23.744-34.825-30.075-42.74 5.804 1.584 18.361 5.383 22.16 7.915 4.749 3.166 7.915 11.08 12.664 14.247 4.749 3.165 3.166 9.497 4.749 18.995 1.583 9.497 1.583 17.412-1.583 28.492-3.166 11.08 4.749 22.161 3.166 33.242-1.583 11.08 14.246 34.824 15.829 44.322 1.583 9.497 14.246 9.497 25.327 20.578 11.08 11.08 15.829 53.819 15.829 69.648 0 15.83 1.583 17.413 0 28.493-1.583 11.081 14.246 47.488 17.412 61.734 3.166 14.247 9.498 18.995 17.412 33.242 7.915 14.246 15.83 23.744 22.161 31.658 6.332 7.915 22.161 12.664 25.327 22.161 3.166 9.498 0 39.573 0 56.985 0 17.413 11.081 53.82 11.081 66.483 0 12.664 20.578 23.744 25.326 28.493 4.749 4.749 33.242 25.327 36.408 33.241 2.139 5.35 3.556 25.162 4.25 34.51.324 1.259.498 2.428.498 3.481 0 3.078-.166 1.001-.498-3.481-2.6-10.11-14.8-26.064-23.245-34.51-9.498-9.497-25.327-23.743-42.739-49.07-17.413-25.327-22.161-42.739-18.996-90.227 3.166-47.488-11.08-30.076-23.743-55.402-12.664-25.327-17.413-22.161-41.157-58.569-23.743-36.407-18.995-82.312-22.16-98.141-3.166-15.829-3.166-30.076-7.915-50.654-4.749-20.578-22.161-30.075-31.659-49.07-9.497-18.996-11.08-37.991-15.829-56.986-4.749-18.995 1.583-28.492 0-49.07ZM960.841 134.548c1.582-20.578 33.236-28.492 39.569-36.407-5.805 1.583-24.694.633-28.493 3.166-4.749 3.166-15.83 7.915-18.996 14.247-2.552 5.104-2.959 9.156-7.914 17.412-4.749 7.912-1.585 18.989 1.58 30.067l.003.008c3.166 11.08-6.332 11.081-11.082 18.995-5.761 9.597-34.825 28.493-44.322 33.241-8.612 4.307-44.322 9.498-55.402 20.578-11.081 11.081-20.578 33.242-20.578 49.071s-1.583 17.412 0 28.493c1.583 11.08-14.247 47.488-17.413 61.734-3.165 14.246-9.497 18.995-17.412 33.241-7.914 14.247-15.829 23.744-22.161 31.659-6.331 7.914-22.161 12.663-25.326 22.161-3.166 9.498 0 39.573 0 56.985s-11.081 53.82-11.081 66.483c0 12.664-20.578 23.744-25.327 28.493-4.749 4.749-33.241 25.327-36.407 33.241-2.14 5.35-3.556 25.162-4.25 34.51-.324 1.259-.499 2.428-.499 3.481 0 3.078.166 1.001.499-3.481 2.6-10.11 14.8-26.064 23.245-34.51 9.498-9.497 25.327-23.744 42.739-49.07 17.412-25.327 22.161-42.739 18.995-90.227-3.166-47.488 11.081-30.076 23.744-55.403 12.663-25.327 17.412-22.161 41.156-58.568s18.995-82.312 22.161-98.141c3.166-15.83 3.166-30.076 7.915-50.654 4.748-20.578 48.272-11.235 66.482-22.161 15.83-9.498 53.821-41.156 58.569-60.151 4.749-18.995-1.577-7.915.006-28.493ZM1115.04 768.136c.05.229.25 1.067.92 2.749 0 2.638-1.58 8.548-7.91 11.081-7.92 3.166-9.5 6.331-17.41 7.914-7.92 1.583-41.16 4.749-49.08 4.749-7.91 0-26.9 6.332-36.4 12.664-9.5 6.331-15.832 15.829-17.415 20.578-1.583 4.748-44.322 26.909-50.653 26.909-6.332 0-39.573 1.583-60.151 0-20.578-1.583-25.327 1.583-33.242 6.332-7.915 4.749-22.161 14.246-26.91 22.161-4.748 7.915-11.08 26.91-14.246 39.573-3.166 12.664-30.076 42.739-39.573 42.739-9.498 0-30.076 17.412-26.91 11.081 3.166-6.332 23.744-23.744 36.407-33.242 12.664-9.497 17.413-30.075 22.161-44.322 4.749-14.246 11.081-15.829 26.91-37.99s34.825-17.412 55.403-17.412h53.819c18.995 0 23.744-9.498 42.739-23.744 18.995-14.246 7.915-4.749 25.327-22.161 17.414-17.412 45.904-11.081 58.564-11.081 12.67 0 28.5-1.582 47.49-7.914 10.69-3.563 10.26-9.947 10.16-10.664-.01-.086-.01-.091 0 0ZM221.61 878.524c-4.749-9.498-7.915-22.161-9.498-23.744 3.166 3.166 9.498 11.081 9.498 17.412 0 7.915 6.332 11.081 11.08 15.829 4.749 4.749 11.081 11.081 15.83 14.247 4.748 3.166 9.497 4.749 15.829 11.08 6.332 6.332 6.332 11.081 11.08 15.83 4.749 4.748 4.749 6.331 9.498 9.497 4.749 3.166 11.08 4.749 22.161 6.332 11.08 1.583 22.161-6.332 36.407-6.332 14.247 0 26.91 7.915 30.076 9.498 3.166 1.583 20.578 12.663 12.663 11.08-7.914-1.583-18.995-6.332-26.91-11.08-7.914-4.749-15.829 0-25.326 0-9.498 0-22.161 7.914-37.991 4.748-15.829-3.165-17.412-7.914-31.658-23.743-14.246-15.83-9.498-12.664-18.995-22.161-9.498-9.498-18.995-18.996-23.744-28.493Z"/></svg>

<svg width="1134" height="1267" viewBox="0 0 1134 1267" fill="none" xmlns="http://www.w3.org/2000/svg">
<path d="M421.985 1225.2C425.725 1210.24 448.165 1157.87 448.165 1127.95C448.165 1098.03 466.866 1053.14 448.165 1030.7C429.465 1008.26 418.245 967.116 388.324 967.116C358.404 967.116 328.483 982.078 306.043 978.337C283.603 974.597 264.902 970.857 242.462 937.194C220.022 903.531 205.062 858.647 205.062 843.686C205.062 828.725 216.282 851.167 234.982 877.349C253.682 903.531 298.563 922.234 313.523 929.714C328.483 937.194 365.884 922.232 388.324 937.194C410.765 952.156 466.866 1019.48 466.866 1030.7V1112.99C466.866 1127.95 448.165 1157.87 448.165 1176.57C448.165 1191.54 435.698 1215.22 429.465 1225.2C436.945 1235.17 453.401 1249.14 459.385 1225.2C466.866 1195.28 496.786 1068.11 493.046 1049.4C489.306 1030.7 496.786 1049.4 478.086 1008.26C459.385 967.116 444.425 952.157 429.465 914.753C414.505 877.349 433.205 869.869 388.324 851.167C343.444 832.466 257.422 824.985 242.462 787.582C227.502 750.179 212.542 720.256 190.101 697.815L190.101 697.814C167.661 675.372 148.96 656.671 126.52 645.45C104.08 634.229 74.1595 649.19 55.4592 608.047C36.7589 566.904 18.0586 533.241 10.5785 510.799C3.09837 488.357 -4.38175 458.435 3.09837 447.214C10.5785 435.993 51.718 495.838 66.6782 510.799C81.6385 525.76 92.8586 544.461 145.219 555.682C197.58 566.903 264.901 585.604 279.862 615.527C294.822 645.45 306.044 667.891 313.523 682.853C321.002 697.815 347.183 705.295 362.143 709.035C377.103 712.775 392.062 712.775 407.024 742.698C421.985 772.62 429.465 787.581 429.465 824.985C429.465 862.388 433.203 862.387 440.684 888.57C448.165 914.753 440.685 911.012 466.866 948.415C493.046 985.818 489.305 967.117 500.525 1008.26C511.745 1049.4 515.485 1030.7 515.485 1064.36C515.485 1098.03 508.004 1101.77 500.525 1120.47C493.046 1139.17 500.527 1150.39 493.046 1169.09C485.565 1187.8 482.172 1231.52 482.792 1236.42C485.142 1254.97 515.485 1142.91 522.965 1127.95C530.445 1112.99 556.626 1053.14 560.366 1015.74C564.106 978.337 575.326 952.157 560.366 914.753C545.406 877.349 545.406 884.829 522.965 836.206C500.525 787.582 493.044 791.322 485.565 753.919C478.086 716.516 463.126 735.217 478.086 667.891C493.046 600.566 403.286 596.826 388.324 581.864C373.363 566.903 362.143 548.201 347.183 518.279C332.222 488.356 321.003 458.434 313.523 421.031C306.043 383.628 287.342 402.329 279.862 364.926C272.381 327.523 287.342 308.821 279.862 282.639C272.381 256.457 264.9 275.159 249.941 226.535C234.982 177.91 227.502 162.949 234.982 114.325C242.462 65.7011 234.982 39.5189 234.982 9.59638C234.982 -14.3416 272.382 12.0899 291.082 28.2979C314.769 33.2847 362.143 55.9754 362.143 106.844C362.143 170.429 358.405 189.13 388.324 207.832C418.244 226.535 425.723 200.352 451.904 234.014C478.086 267.677 466.866 286.379 466.866 320.042C466.866 353.704 455.645 357.445 466.866 379.887C478.086 402.328 485.565 402.33 496.785 421.031C508.005 439.732 526.705 473.394 511.745 503.317C496.785 533.239 481.825 551.94 496.785 566.902C511.745 581.864 530.445 585.603 522.965 626.747V626.748C515.485 667.892 508.005 709.036 515.485 742.698C522.965 776.36 541.666 798.802 560.366 824.985C579.066 851.167 586.546 862.389 586.546 914.753C586.546 967.116 586.546 989.556 579.066 1019.48C571.586 1049.4 575.326 1060.62 560.366 1094.29C545.406 1127.95 519.06 1163.9 507.84 1205.04C496.62 1246.18 515.32 1246.19 530.28 1212.52C545.24 1178.86 571.586 1109.25 586.546 1094.29C601.507 1079.33 635.167 1008.26 635.167 978.337C635.167 948.415 646.387 899.791 635.167 888.57C623.947 877.349 616.467 873.61 616.467 824.985C616.467 776.36 627.687 727.739 635.167 697.815C642.647 667.891 646.387 682.853 653.867 645.45C661.347 608.047 657.607 585.603 646.387 551.941C635.167 518.279 629.449 495.677 635.167 480.875C639.502 469.654 642.647 417.29 698.748 398.588C754.849 379.887 769.809 346.224 769.809 320.042C769.809 293.859 758.589 275.158 777.289 241.495C795.99 207.832 818.43 192.871 840.87 189.131C863.311 185.39 908.191 151.727 911.931 136.766C915.671 121.805 945.592 88.1421 956.812 84.4018C968.032 80.6615 1012.91 91.8824 1031.61 91.8824C1050.31 91.8824 1016.65 114.325 1009.17 114.325C1001.69 114.325 982.993 125.545 982.993 136.766V196.611C982.993 219.053 979.252 267.677 945.592 293.859C911.931 320.042 878.271 335.002 859.571 349.964C840.87 364.926 825.91 376.145 833.39 398.588C840.87 421.031 840.87 447.212 840.87 469.653V469.654C840.87 487.608 823.417 541.967 814.69 566.902C797.795 604.678 758.222 636.336 739.889 645.45C715.738 657.457 694.905 656.914 687.528 667.891C678.926 680.692 661.347 686.594 653.867 709.035C646.387 731.476 647.417 737.644 646.387 753.919C643.743 795.726 646.387 826.231 646.387 836.206C645.834 850.031 644.251 837.368 646.387 866.127C649.213 904.166 653.867 881.091 653.867 929.714C653.867 978.337 638.907 997.038 635.167 1019.48C631.427 1041.92 627.687 1075.58 616.467 1094.29C605.247 1112.99 597.766 1142.91 579.066 1150.39C561.625 1157.37 540.786 1215.4 531.99 1229.24C546.072 1212.52 626.656 1120.6 646.387 1094.29C668.828 1064.36 691.268 1008.26 721.188 978.337C751.109 948.415 754.849 933.454 769.809 888.57C784.769 843.686 788.509 832.466 814.69 824.985C840.87 817.503 848.35 813.764 885.751 824.985C923.152 836.206 938.112 824.984 960.552 813.763C982.992 802.542 975.512 768.879 1012.91 772.619C1050.31 776.36 1069.01 772.619 1087.71 772.619C1102.67 772.619 1118.88 760.152 1125.11 753.919C1131.35 756.413 1140.07 766.638 1125.11 787.582C1106.41 813.763 1106.41 791.321 1072.75 802.542C1039.09 813.763 1024.13 813.761 1005.43 832.464C986.732 851.167 1012.91 866.128 975.512 877.349C938.112 888.569 915.671 884.829 882.011 896.05C848.35 907.271 829.65 907.271 814.69 937.194C799.73 967.116 822.17 978.336 781.029 997.038C739.889 1015.74 732.409 1012 721.188 1030.7C709.977 1049.39 676.36 1083.01 661.382 1097.99L661.347 1098.03C649.379 1110 638.907 1130.44 635.167 1139.17C623.947 1157.87 598.515 1196.02 586.546 1199.02C571.586 1202.76 545.406 1221.46 537.926 1236.42C530.445 1251.38 534.184 1255.12 500.525 1258.86C466.866 1262.6 459.383 1266.34 440.684 1266.34C421.985 1266.34 399.543 1251.38 403.283 1247.64C407.024 1243.9 407.026 1228.94 421.985 1225.2Z" fill="#107500"/>
<path d="M403.646 786.714C413.144 800.96 408.395 818.373 409.978 832.619C406.284 828.925 398.581 820.905 397.314 818.373C395.731 815.207 395.731 799.378 394.148 793.046C392.566 786.714 389.4 778.799 379.902 770.885C370.405 762.97 357.741 766.136 341.912 761.387C326.083 756.639 315.002 755.056 307.088 750.307C299.173 745.558 288.092 732.895 283.344 720.231C278.595 707.568 272.263 696.487 267.514 685.407C262.766 674.326 259.6 661.663 253.268 649C246.936 636.336 213.695 622.09 201.032 620.507C188.368 618.924 167.79 631.587 156.71 628.422C145.629 625.256 136.132 617.341 131.383 609.426C126.634 601.512 101.307 580.934 88.6438 573.019C75.9804 565.104 58.5682 550.858 50.6536 535.029C42.7389 519.2 39.5731 508.119 30.0755 495.456C22.4775 485.325 18.4674 471.184 17.4121 465.38C22.1609 470.657 33.2414 484.059 39.5731 495.456C47.4877 509.702 63.317 525.531 69.6487 538.195C75.9804 550.858 113.971 576.185 136.132 596.763C158.293 617.341 177.288 604.678 204.197 609.426C231.107 614.175 239.022 623.673 253.268 636.336C267.514 649 275.429 667.995 283.344 690.156C291.258 712.317 300.756 718.648 322.917 739.226C345.078 759.804 349.827 745.558 373.57 755.056C397.314 764.553 394.148 772.468 403.646 786.714Z" fill="#21CE05"/>
<path d="M275.429 52.2366C273.846 31.6585 251.685 17.4122 245.354 9.49756C251.158 11.0805 263.715 14.8795 267.514 17.4122C272.263 20.578 275.429 28.4927 280.178 31.6585C284.927 34.8244 283.344 41.1561 284.927 50.6536C286.51 60.1512 286.51 68.0658 283.344 79.1463C280.178 90.2268 288.093 101.307 286.51 112.388C284.927 123.468 300.756 147.212 302.339 156.71C303.922 166.207 316.585 166.207 327.666 177.288C338.746 188.368 343.495 231.107 343.495 246.936C343.495 262.766 345.078 264.349 343.495 275.429C341.912 286.51 357.741 322.917 360.907 337.163C364.073 351.41 370.405 356.158 378.319 370.405C386.234 384.651 394.149 394.149 400.48 402.063C406.812 409.978 422.641 414.727 425.807 424.224C428.973 433.722 425.807 463.797 425.807 481.209C425.807 498.622 436.888 535.029 436.888 547.692C436.888 560.356 457.466 571.436 462.214 576.185C466.963 580.934 495.456 601.512 498.622 609.426C500.761 614.776 502.178 634.588 502.872 643.936C503.196 645.195 503.37 646.364 503.37 647.417C503.37 650.495 503.204 648.418 502.872 643.936C500.272 633.826 488.072 617.872 479.627 609.426C470.129 599.929 454.3 585.683 436.888 560.356C419.475 535.029 414.727 517.617 417.892 470.129C421.058 422.641 406.812 440.053 394.149 414.727C381.485 389.4 376.736 392.566 352.992 356.158C329.249 319.751 333.997 273.846 330.832 258.017C327.666 242.188 327.666 227.941 322.917 207.363C318.168 186.785 300.756 177.288 291.258 158.293C281.761 139.297 280.178 120.302 275.429 101.307C270.68 82.3121 277.012 72.8146 275.429 52.2366Z" fill="#21CE05"/>
<path d="M960.841 134.548C962.423 113.97 994.077 106.056 1000.41 98.1414C994.605 99.7243 975.716 98.7745 971.917 101.307C967.168 104.473 956.087 109.222 952.921 115.554C950.369 120.658 949.962 124.71 945.007 132.966C940.258 140.878 943.422 151.955 946.587 163.033L946.59 163.041C949.756 174.121 940.258 174.122 935.508 182.036C929.747 191.633 900.683 210.529 891.186 215.277C882.574 219.584 846.864 224.775 835.784 235.855C824.703 246.936 815.206 269.097 815.206 284.926C815.206 300.755 813.623 302.338 815.206 313.419C816.789 324.499 800.959 360.907 797.793 375.153C794.628 389.399 788.296 394.148 780.381 408.394C772.467 422.641 764.552 432.138 758.22 440.053C751.889 447.967 736.059 452.716 732.894 462.214C729.728 471.712 732.894 501.787 732.894 519.199C732.894 536.611 721.813 573.019 721.813 585.682C721.813 598.346 701.235 609.426 696.486 614.175C691.737 618.924 663.245 639.502 660.079 647.416C657.939 652.766 656.523 672.578 655.829 681.926C655.505 683.185 655.33 684.354 655.33 685.407C655.33 688.485 655.496 686.408 655.829 681.926C658.429 671.816 670.629 655.862 679.074 647.416C688.572 637.919 704.401 623.672 721.813 598.346C739.225 573.019 743.974 555.607 740.808 508.119C737.642 460.631 751.889 478.043 764.552 452.716C777.215 427.389 781.964 430.555 805.708 394.148C829.452 357.741 824.703 311.836 827.869 296.007C831.035 280.177 831.035 265.931 835.784 245.353C840.532 224.775 884.056 234.118 902.266 223.192C918.096 213.694 956.087 182.036 960.835 163.041C965.584 144.046 959.258 155.126 960.841 134.548Z" fill="#21CE05"/>
<path d="M1115.04 768.136C1115.09 768.365 1115.29 769.203 1115.96 770.885C1115.96 773.523 1114.38 779.433 1108.05 781.966C1100.13 785.132 1098.55 788.297 1090.64 789.88C1082.72 791.463 1049.48 794.629 1041.56 794.629C1033.65 794.629 1014.66 800.961 1005.16 807.293C995.66 813.624 989.328 823.122 987.745 827.871C986.162 832.619 943.423 854.78 937.092 854.78C930.76 854.78 897.519 856.363 876.941 854.78C856.363 853.197 851.614 856.363 843.699 861.112C835.784 865.861 821.538 875.358 816.789 883.273C812.041 891.188 805.709 910.183 802.543 922.846C799.377 935.51 772.467 965.585 762.97 965.585C753.472 965.585 732.894 982.997 736.06 976.666C739.226 970.334 759.804 952.922 772.467 943.424C785.131 933.927 789.88 913.349 794.628 899.102C799.377 884.856 805.709 883.273 821.538 861.112C837.367 838.951 856.363 843.7 876.941 843.7H930.76C949.755 843.7 954.504 834.202 973.499 819.956C992.494 805.71 981.414 815.207 998.826 797.795C1016.24 780.383 1044.73 786.714 1057.39 786.714C1070.06 786.714 1085.89 785.132 1104.88 778.8C1115.57 775.237 1115.14 768.853 1115.04 768.136C1115.03 768.05 1115.03 768.045 1115.04 768.136Z" fill="#21CE05"/>
<path d="M221.61 878.524C216.861 869.026 213.695 856.363 212.112 854.78C215.278 857.946 221.61 865.861 221.61 872.192C221.61 880.107 227.942 883.273 232.69 888.021C237.439 892.77 243.771 899.102 248.52 902.268C253.268 905.434 258.017 907.017 264.349 913.348C270.681 919.68 270.681 924.429 275.429 929.178C280.178 933.926 280.178 935.509 284.927 938.675C289.676 941.841 296.007 943.424 307.088 945.007C318.168 946.59 329.249 938.675 343.495 938.675C357.742 938.675 370.405 946.59 373.571 948.173C376.737 949.756 394.149 960.836 386.234 959.253C378.32 957.67 367.239 952.921 359.324 948.173C351.41 943.424 343.495 948.173 333.998 948.173C324.5 948.173 311.837 956.087 296.007 952.921C280.178 949.756 278.595 945.007 264.349 929.178C250.103 913.348 254.851 916.514 245.354 907.017L245.354 907.017C235.856 897.519 226.359 888.021 221.61 878.524Z" fill="#21CE05"/>
</svg>
